src/assets/first2.svg

<svg width="51" height="62" viewBox="0 0 51 62" fill="none" xmlns="http://www.w3.org/2000/svg">
<path d="M43.9621 0.267043L7.10396 0.236328C3.69458 0.236328 0.960938 2.96997 0.960938 6.37935V55.5235C0.960938 58.9329 3.69458 61.6666 7.10396 61.6666H43.9621C47.3715 61.6666 50.1051 58.9329 50.1051 55.5235V6.37935C50.1051 2.96997 47.3715 0.267043 43.9621 0.267043ZM43.9621 55.5235H7.10396L7.07325 6.37935H43.9621V55.5235Z" fill="#B29C3F"/>
<path d="M13.2473 15.5937C14.9436 15.5937 16.3188 14.2185 16.3188 12.5222C16.3188 10.8258 14.9436 9.45068 13.2473 9.45068C11.5509 9.45068 10.1758 10.8258 10.1758 12.5222C10.1758 14.2185 11.5509 15.5937 13.2473 15.5937Z" fill="#B29C3F"/>
<path d="M22.4602 15.5937C24.1565 15.5937 25.5317 14.2185 25.5317 12.5222C25.5317 10.8258 24.1565 9.45068 22.4602 9.45068C20.7638 9.45068 19.3887 10.8258 19.3887 12.5222C19.3887 14.2185 20.7638 15.5937 22.4602 15.5937Z" fill="#B29C3F"/>
<path d="M25.5333 52.4519C34.0107 52.4519 40.8909 45.5717 40.8909 37.0944C40.8909 28.617 34.0107 21.7368 25.5333 21.7368C17.056 21.7368 10.1758 28.617 10.1758 37.0944C10.1758 45.5717 17.056 52.4519 25.5333 52.4519ZM32.7821 29.8456C36.7751 33.8386 36.7751 40.3502 32.7821 44.3431C28.7891 48.3361 22.2775 48.3361 18.2846 44.3431L32.7821 29.8456Z" fill="#B29C3F"/>
</svg>

<svg width="51" height="62" fill="none" xmlns="http://www.w3.org/2000/svg"><path d="M43.962.267 7.104.237A6.122 6.122 0 0 0 .961 6.378v49.144a6.122 6.122 0 0 0 6.143 6.144h36.858a6.122 6.122 0 0 0 6.143-6.144V6.38c0-3.409-2.733-6.112-6.143-6.112Zm0 55.256H7.104L7.074 6.38h36.888v49.145Z" fill="#B29C3F"/><path d="M13.247 15.594a3.072 3.072 0 1 0 0-6.143 3.072 3.072 0 0 0 0 6.143Zm9.213 0a3.072 3.072 0 1 0 0-6.143 3.072 3.072 0 0 0 0 6.143Zm3.073 36.858c8.478 0 15.358-6.88 15.358-15.358 0-8.477-6.88-15.357-15.358-15.357-8.477 0-15.357 6.88-15.357 15.357 0 8.478 6.88 15.358 15.357 15.358Zm7.25-22.606c3.992 3.993 3.992 10.504 0 14.497-3.994 3.993-10.506 3.993-14.498 0l14.497-14.497Z" fill="#B29C3F"/></svg>
